apps/mobile/assets/icons/phosphor/hand-swipe-left.svg

<svg
  height="32"
  viewBox="0 0 256 256"
  width="32"
  xmlns="http://www.w3.org/2000/svg"
>
  <path
    d="m216 140v36c0 25.59-8.49 42.85-8.85 43.58a8 8 0 0 1 -7.15 4.42 7.9 7.9 0 0 1 -3.57-.85 8 8 0 0 1 -3.58-10.73c.06-.12 7.16-14.81 7.16-36.42v-36a12 12 0 0 0 -24 0v4a8 8 0 0 1 -16 0v-20a12 12 0 0 0 -24 0v12a8 8 0 0 1 -16 0v-68a12 12 0 0 0 -24 0v108a8 8 0 0 1 -14.79 4.23l-18.68-30-.14-.23a12 12 0 1 0 -20.8 12l29.29 50a8 8 0 1 1 -13.81 8l-29.32-50a28 28 0 0 1 48.41-28.17l3.83 6.17v-80a28 28 0 0 1 56 0v30.7a28 28 0 0 1 38.65 16.69 28 28 0 0 1 41.35 24.61zm32-92h-52.69l18.34-18.34a8 8 0 0 0 -11.31-11.32l-32 32a8 8 0 0 0 0 11.32l32 32a8 8 0 0 0 11.31-11.32l-18.34-18.34h52.69a8 8 0 0 0 0-16z"
  />
</svg>

<svg xmlns="http://www.w3.org/2000/svg" width="32" height="32" fill="#000000" viewBox="0 0 256 256"><path d="M216,140v36c0,25.59-8.49,42.85-8.85,43.58A8,8,0,0,1,200,224a7.9,7.9,0,0,1-3.57-.85,8,8,0,0,1-3.58-10.73c.06-.12,7.16-14.81,7.16-36.42V140a12,12,0,0,0-24,0v4a8,8,0,0,1-16,0V124a12,12,0,0,0-24,0v12a8,8,0,0,1-16,0V68a12,12,0,0,0-24,0V176a8,8,0,0,1-14.79,4.23l-18.68-30-.14-.23A12,12,0,1,0,41.6,162L70.89,212A8,8,0,1,1,57.08,220l-29.32-50a28,28,0,0,1,48.41-28.17L80,148V68a28,28,0,0,1,56,0V98.7a28,28,0,0,1,38.65,16.69A28,28,0,0,1,216,140Zm32-92H195.31l18.34-18.34a8,8,0,0,0-11.31-11.32l-32,32a8,8,0,0,0,0,11.32l32,32a8,8,0,0,0,11.31-11.32L195.31,64H248a8,8,0,0,0,0-16Z"></path></svg>
